api/fonts/FontSquirrel Logo.svg

<svg width="24" height="26" viewBox="0 0 24 26" fill="none" xmlns="http://www.w3.org/2000/svg">
<g clip-path="url(#clip0)">
<path d="M11.7483 0.052965C11.7349 0.066344 11.5321 0.0922992 11.2961 0.118522C11.0665 0.144745 10.811 0.190769 10.7256 0.223413C10.6408 0.256326 10.5752 0.269437 10.5752 0.249636C10.5752 0.236257 10.2996 0.302082 9.9721 0.38744C9.63762 0.479219 9.31652 0.564042 9.26408 0.577421C8.74604 0.702113 7.46112 1.22657 6.51067 1.71196C3.59967 3.18605 1.48845 5.41499 0.675812 7.87405C0.0791078 9.68289 0.125132 11.9316 0.787126 13.2165C1.18047 13.9968 1.88153 14.5344 2.77338 14.7444C3.18625 14.8488 4.33337 14.8228 4.8383 14.7112C6.66052 14.2917 9.02754 12.9543 10.2795 11.6368L10.4893 11.42L10.6659 11.6822C11.0138 12.1874 11.3611 13.2626 11.4724 14.1804C11.5511 14.8493 11.5053 16.4355 11.3938 16.7502C11.3804 16.7957 11.3544 16.9402 11.3349 17.0649C11.2038 17.9891 10.6464 19.5954 10.3122 20.0412C9.80111 20.716 9.59106 21.4112 9.61059 22.3092C9.63682 23.0498 9.87282 23.5743 10.4302 24.125C10.7904 24.479 11.4264 24.8662 11.8329 24.9641C11.964 24.997 11.9902 25.0428 11.9835 25.2461C11.9771 25.3772 12.0033 25.5279 12.0359 25.5672C12.1149 25.6721 12.5738 25.6788 13.0982 25.5806C13.315 25.541 13.6425 25.5017 13.8194 25.495C14.1405 25.4886 14.1472 25.4886 14.1672 25.6983C14.1801 25.8428 14.2325 25.9212 14.3176 25.9472C14.4749 25.9999 15.2488 25.941 15.537 25.8557C15.7537 25.7901 16.2319 25.8032 17.0121 25.8819C17.451 25.9279 17.5232 25.9212 17.5628 25.8294C17.6351 25.6395 17.4512 25.2461 17.1366 24.925C16.835 24.6101 16.7368 24.5708 16.3435 24.6039C16.2319 24.6101 16.3435 24.5183 16.6975 24.3149C16.9795 24.1512 17.3076 23.9414 17.4253 23.8563L17.642 23.6923L18.0022 23.8823C18.4544 24.1317 18.9398 24.1905 19.0316 24.0134C19.084 23.9152 19.0642 23.8694 18.9459 23.771C18.7693 23.6332 18.4416 23.2069 18.4416 23.1218C18.4416 23.0629 18.966 22.7349 18.9922 22.7809C18.9987 22.7943 19.0709 22.9447 19.1496 23.1154C19.3396 23.5283 19.8185 24.0332 20.1787 24.2034C20.7361 24.4656 21.195 24.4918 21.195 24.2558C21.195 24.2165 21.0965 24.0792 20.9721 23.9481C20.6376 23.6136 20.2967 22.9971 20.2049 22.5974C20.1594 22.4007 20.1394 22.2302 20.1594 22.2104C20.1787 22.1909 20.6443 22.0205 21.2014 21.8238C22.3948 21.4106 22.6897 21.2926 23.1419 21.0371C23.5419 20.8142 23.7057 20.552 23.6075 20.2699C23.5486 20.0933 23.1681 19.6668 22.8141 19.3719C22.5583 19.1622 21.7978 18.7752 21.542 18.7298C21.3322 18.6902 21.3258 18.677 21.3191 18.3685C21.3127 18.1919 21.2996 18.0148 21.2929 17.9821C21.2865 17.9428 21.2734 17.8644 21.2667 17.7986C21.2533 17.5888 21.0962 17.4379 20.952 17.4839C20.8343 17.5232 20.6836 17.7724 20.6245 18.0148C20.5656 18.2706 20.4147 18.7228 20.4083 18.6704C20.4016 18.631 20.3885 18.4737 20.3754 18.3099C20.2836 17.3268 19.8445 17.4842 19.6085 18.5855L19.5295 18.9527L19.2344 19.0051C18.4022 19.1362 17.1954 19.1362 16.7368 18.9984C16.5401 18.9395 16.2257 18.8539 16.0419 18.8017C15.6946 18.71 14.9079 18.6118 14.4953 18.6182C14.3572 18.6182 14.2459 18.5986 14.2459 18.5727C14.2459 18.5526 14.5475 18.2971 14.9079 18.0215C18.2842 15.426 20.5918 12.4756 21.1687 10.0171C21.2276 9.76156 21.2865 9.49933 21.3063 9.42708C21.3261 9.35484 21.3456 8.916 21.3523 8.45042C21.3916 6.05745 20.6507 4.01876 19.1889 2.52406C17.8845 1.19312 16.0751 0.353992 13.951 0.091764C13.4659 0.0328965 11.7943 -1.57692e-05 11.7483 0.0524298V0.052965ZM22.113 19.5627C22.1917 19.7005 22.1393 19.8643 21.9883 19.9427C21.6999 20.0939 21.3983 19.6484 21.6672 19.4645C21.8179 19.3529 22.0277 19.399 22.113 19.5627Z" fill="#3D2D43"/>
</g>
<defs>
<clipPath id="clip0">
<rect width="23.7848" height="26" fill="white"/>
</clipPath>
</defs>
</svg>

<svg width="24" height="26" fill="none" xmlns="http://www.w3.org/2000/svg"><g clip-path="url(#clip0)"><path d="M11.748.053c-.013.013-.216.04-.452.066-.23.026-.485.072-.57.104-.085.033-.15.046-.15.027 0-.014-.276.052-.604.137-.334.092-.655.177-.708.19-.518.125-1.803.65-2.753 1.135C3.6 3.186 1.488 5.415.676 7.874c-.597 1.809-.55 4.058.111 5.343.393.78 1.095 1.317 1.986 1.527.413.105 1.56.079 2.065-.033 1.823-.42 4.19-1.757 5.442-3.074l.21-.217.176.262c.348.505.695 1.58.806 2.498.08.67.033 2.256-.078 2.57a3.85 3.85 0 0 0-.06.315c-.13.924-.688 2.53-1.022 2.976-.51.675-.72 1.37-.701 2.268.026.74.262 1.265.82 1.816.36.354.995.741 1.402.84.131.032.157.078.15.281-.006.131.02.282.053.321.079.105.538.112 1.062.014.217-.04.544-.08.721-.086.321-.006.328-.006.348.203.013.145.066.223.15.25.158.052.932-.007 1.22-.092.217-.066.695-.053 1.475.026.439.046.511.04.55-.053.073-.19-.11-.583-.425-.904-.302-.315-.4-.354-.794-.321-.111.006 0-.086.355-.29.282-.163.61-.373.727-.458l.217-.164.36.19c.452.25.938.308 1.03.131.052-.098.032-.144-.086-.242-.177-.138-.504-.564-.504-.65 0-.058.524-.386.55-.34.007.013.079.164.158.334.19.413.669.918 1.029 1.088.557.263 1.016.289 1.016.053 0-.04-.099-.177-.223-.308-.334-.334-.675-.95-.767-1.35-.046-.197-.066-.368-.046-.388.02-.02.485-.19 1.042-.386 1.194-.413 1.489-.531 1.94-.787.4-.223.565-.485.467-.767-.06-.177-.44-.603-.794-.898-.256-.21-1.016-.597-1.272-.642-.21-.04-.216-.053-.223-.361a4.6 4.6 0 0 0-.026-.387c-.006-.04-.02-.118-.026-.183-.014-.21-.17-.361-.315-.315-.118.04-.268.288-.328.53-.058.257-.21.709-.216.656a8.268 8.268 0 0 1-.033-.36c-.091-.983-.53-.826-.767.276l-.079.367-.295.052c-.832.131-2.039.131-2.497-.007-.197-.059-.511-.144-.695-.196a7.707 7.707 0 0 0-1.547-.184c-.138 0-.25-.02-.25-.045 0-.02.303-.276.663-.552 3.376-2.595 5.684-5.545 6.26-8.004.06-.255.119-.518.138-.59.02-.072.04-.511.046-.977.04-2.393-.701-4.431-2.163-5.926-1.305-1.33-3.114-2.17-5.238-2.432-.485-.06-2.157-.092-2.203-.04v.001zm10.365 19.51c.079.138.026.301-.125.38-.288.15-.59-.295-.32-.479a.299.299 0 0 1 .445.099z" fill="#3D2D43"/></g><defs><clipPath id="clip0"><path fill="#fff" d="M0 0H23.785V26H0z"/></clipPath></defs></svg>
